!!! OTL: Berkowitz27
!!! Chapter: 1
!!! Section: I
!!! Page: 9
!!! Mode: 
!!! Encoder: DJB
**kern
*staff1
*I"Piano
=1-
*clefF4
*k[f#c#]
*D:
*met(c|)
*M2/2
4D\
4F#\
2A\
=2
4F#\
4A\
2d\
=3
4e\
4d\
4c#\
4B\
=4
4A\
4G\
4F#\
4E\
=5
4F#\
4A\
2D\
=6
4F#\
4A\
2d\
=7
4e\
4d\
4c#\
4B\
=8
8A\L
8G\
8F#\
8E\J
2D\
==
*-
